actions/16/go-home.svg

<?xml version="1.0" encoding="UTF-8" standalone="no"?>
<!-- Created with Inkscape (http://www.inkscape.org/) -->

<svg
   xmlns:svg="http://www.w3.org/2000/svg"
   xmlns="http://www.w3.org/2000/svg"
   xmlns:xlink="http://www.w3.org/1999/xlink"
   version="1.1"
   width="16"
   height="16"
   id="svg3203">
  <defs
     id="defs3205">
    <linearGradient
       id="linearGradient5106">
      <stop
         id="stop5108"
         style="stop-color:#729fcf;stop-opacity:1"
         offset="0" />
      <stop
         id="stop5110"
         style="stop-color:#3c77b4;stop-opacity:1"
         offset="1" />
    </linearGradient>
    <linearGradient
       x1="8.1771841"
       y1="5.8576875"
       x2="8.1771841"
       y2="15.676654"
       id="linearGradient2417"
       xlink:href="#linearGradient5106"
       gradientUnits="userSpaceOnUse"
       gradientTransform="matrix(1.0306791,0,0,1.0119644,-0.4280528,-0.5250484)" />
    <linearGradient
       id="linearGradient3195">
      <stop
         id="stop3197"
         style="stop-color:white;stop-opacity:1"
         offset="0" />
      <stop
         id="stop3199"
         style="stop-color:white;stop-opacity:0"
         offset="1" />
    </linearGradient>
    <linearGradient
       x1="8"
       y1="1.96875"
       x2="8"
       y2="15.949862"
       id="linearGradient3201"
       xlink:href="#linearGradient3195"
       gradientUnits="userSpaceOnUse" />
  </defs>
  <g
     id="layer1">
    <path
       d="m 8,1.0307219 -7.50003975,7.4916378 2.02780775,0 -7e-7,6.9776403 10.9444657,0 1e-6,-6.9776403 2.027807,0 L 13.5,6.5 l 0,-5 -3,0 0,2 L 8,1.0307219 z"
       id="rect5117"
       style="fill:url(#linearGradient2417);fill-opacity:1;fill-rule:nonzero;stroke:#204a87;stroke-width:1.00000012;stroke-linecap:butt;stroke-linejoin:round;stroke-miterlimit:4;stroke-opacity:1;stroke-dasharray:none;stroke-dashoffset:0;marker:none;visibility:visible;display:inline;overflow:visible" />
    <path
       d="M 8,2.46875 2.875,7.5625 a 1.0126879,1.0126879 0 0 1 0.65625,0.96875 l 0,5.96875 8.9375,0 0,-5.96875 A 1.0126879,1.0126879 0 0 1 13.125,7.59375 l -0.34375,-0.375 A 1.0126879,1.0126879 0 0 1 12.5,6.5 l 0,-4 -1,0 0,1 A 1.0126879,1.0126879 0 0 1 9.78125,4.21875 L 8,2.46875 z"
       id="path3193"
       style="opacity:0.4;fill:none;stroke:url(#linearGradient3201);stroke-width:1;stroke-linecap:butt;stroke-linejoin:miter;stroke-miterlimit:4;stroke-opacity:1;stroke-dasharray:none;stroke-dashoffset:0;marker:none;visibility:visible;display:inline;overflow:visible" />
  </g>
</svg>

<?xml version="1.0" encoding="UTF-8" standalone="no"?>
<!-- Created with Inkscape (http://www.inkscape.org/) -->
<svg
   xmlns:dc="http://purl.org/dc/elements/1.1/"
   xmlns:cc="http://creativecommons.org/ns#"
   xmlns:rdf="http://www.w3.org/1999/02/22-rdf-syntax-ns#"
   xmlns:svg="http://www.w3.org/2000/svg"
   xmlns="http://www.w3.org/2000/svg"
   xmlns:xlink="http://www.w3.org/1999/xlink"
   xmlns:sodipodi="http://sodipodi.sourceforge.net/DTD/sodipodi-0.dtd"
   xmlns:inkscape="http://www.inkscape.org/namespaces/inkscape"
   width="16px"
   height="16px"
   id="svg3203"
   sodipodi:version="0.32"
   inkscape:version="0.46"
   sodipodi:docname="go-home.svg"
   inkscape:output_extension="org.inkscape.output.svg.inkscape">
  <defs
     id="defs3205">
    <linearGradient
       id="linearGradient5106">
      <stop
         style="stop-color:#729fcf;stop-opacity:1;"
         offset="0"
         id="stop5108" />
      <stop
         style="stop-color:#3c77b4;stop-opacity:1;"
         offset="1"
         id="stop5110" />
    </linearGradient>
    <linearGradient
       inkscape:collect="always"
       xlink:href="#linearGradient5106"
       id="linearGradient2417"
       gradientUnits="userSpaceOnUse"
       gradientTransform="matrix(1.0306791,0,0,1.0119644,-0.4280528,-0.5250484)"
       x1="8.1771841"
       y1="5.8576875"
       x2="8.1771841"
       y2="15.676654" />
    <linearGradient
       inkscape:collect="always"
       id="linearGradient3195">
      <stop
         style="stop-color:#ffffff;stop-opacity:1;"
         offset="0"
         id="stop3197" />
      <stop
         style="stop-color:#ffffff;stop-opacity:0;"
         offset="1"
         id="stop3199" />
    </linearGradient>
    <linearGradient
       inkscape:collect="always"
       xlink:href="#linearGradient3195"
       id="linearGradient3201"
       x1="8"
       y1="1.96875"
       x2="8"
       y2="15.949862"
       gradientUnits="userSpaceOnUse" />
  </defs>
  <sodipodi:namedview
     id="base"
     pagecolor="#ffffff"
     bordercolor="#666666"
     borderopacity="1.0"
     inkscape:pageopacity="0.0"
     inkscape:pageshadow="2"
     inkscape:zoom="22.197802"
     inkscape:cx="8"
     inkscape:cy="8"
     inkscape:current-layer="layer1"
     showgrid="true"
     inkscape:grid-bbox="true"
     inkscape:document-units="px"
     inkscape:window-width="640"
     inkscape:window-height="679"
     inkscape:window-x="0"
     inkscape:window-y="24" />
  <metadata
     id="metadata3208">
    <rdf:RDF>
      <cc:Work
         rdf:about="">
        <dc:format>image/svg+xml</dc:format>
        <dc:type
           rdf:resource="http://purl.org/dc/dcmitype/StillImage" />
      </cc:Work>
    </rdf:RDF>
  </metadata>
  <g
     id="layer1"
     inkscape:label="Layer 1"
     inkscape:groupmode="layer">
    <path
       style="fill:url(#linearGradient2417);fill-opacity:1;fill-rule:nonzero;stroke:#204a87;stroke-width:1.00000011999999994;stroke-linecap:butt;stroke-linejoin:round;marker:none;marker-start:none;marker-mid:none;marker-end:none;stroke-miterlimit:4;stroke-dasharray:none;stroke-dashoffset:0;stroke-opacity:1;visibility:visible;display:inline;overflow:visible"
       d="M 8,1.0307219 L 0.49996025,8.5223597 L 2.527768,8.5223597 L 2.5277673,15.5 L 13.472233,15.5 L 13.472234,8.5223597 L 15.500041,8.5223597 L 13.5,6.5 L 13.5,1.5 L 10.5,1.5 L 10.5,3.5 L 8,1.0307219 z"
       id="rect5117"
       sodipodi:nodetypes="cccccccccccc" />
    <path
       sodipodi:type="inkscape:offset"
       inkscape:radius="-1.0125866"
       inkscape:original="M 8 1.03125 L 0.5 8.53125 L 2.53125 8.53125 L 2.53125 15.5 L 13.46875 15.5 L 13.46875 8.53125 L 15.5 8.53125 L 13.5 6.5 L 13.5 1.5 L 10.5 1.5 L 10.5 3.5 L 8 1.03125 z "
       style="opacity:0.40000000000000002;fill:none;fill-opacity:1;fill-rule:nonzero;stroke:url(#linearGradient3201);stroke-width:1;stroke-linecap:butt;stroke-linejoin:miter;marker:none;marker-start:none;marker-mid:none;marker-end:none;stroke-miterlimit:4;stroke-dasharray:none;stroke-dashoffset:0;stroke-opacity:1;visibility:visible;display:inline;overflow:visible"
       id="path3193"
       d="M 8,2.46875 L 2.875,7.5625 C 3.2770485,7.7135808 3.5400646,8.1018427 3.53125,8.53125 L 3.53125,14.5 L 12.46875,14.5 L 12.46875,8.53125 C 12.473046,8.1132581 12.733726,7.7408572 13.125,7.59375 L 12.78125,7.21875 C 12.596297,7.0256864 12.495196,6.7673164 12.5,6.5 L 12.5,2.5 L 11.5,2.5 L 11.5,3.5 C 11.497123,3.9057258 11.252363,4.2705681 10.878039,4.4271036 C 10.503715,4.583639 10.072096,4.5016458 9.78125,4.21875 L 8,2.46875 z" />
  </g>
</svg>
